service/public/assets/partners/01_avado.svg

<?xml version="1.0" encoding="utf-8"?>
<!-- Generator: Adobe Illustrator 25.0.1, SVG Export Plug-In . SVG Version: 6.00 Build 0)  -->
<svg version="1.1" id="Ebene_1" xmlns="http://www.w3.org/2000/svg" xmlns:xlink="http://www.w3.org/1999/xlink" x="0px" y="0px"
	 viewBox="0 0 897 178" style="enable-background:new 0 0 897 178;" xml:space="preserve">
<style type="text/css">
	.st0{fill:#9D9D9D;}
	.st1{fill:#C4C4C4;}
	.st2{fill:#414141;}
	.st3{fill:#4B4B4B;}
	.st4{fill:#FFFFFF;}
	.st5{fill-rule:evenodd;clip-rule:evenodd;fill:#414141;}
	.st6{fill:#444444;}
	.st7{fill-rule:evenodd;clip-rule:evenodd;fill:#FFFFFF;}
</style>
<path class="st0" d="M138.7,89.5V53L53.9,0v36.5L138.7,89.5z"/>
<path class="st1" d="M0,70V33.4L53.9,0v36.6L0,70z"/>
<path class="st2" d="M84.7,123.1V86.5L0,33.4V70L84.7,123.1z"/>
<path class="st3" d="M84.7,123.1V86.5l53.9-33.4v36.6L84.7,123.1z"/>
<path class="st2" d="M54,0L0,33.4l84.7,53l54-33.4L54,0z"/>
<path class="st4" d="M55.1,9.8L15.5,34.2L77.7,73l39.6-24.4L55.1,9.8z"/>
<path class="st5" d="M19.5,30.6c0.5-0.8,1.5-1,2.2-0.5l8.1,5c0.8,0.5,1,1.5,0.5,2.2c-0.5,0.8-1.5,1-2.2,0.5l-8.1-5
	C19.2,32.3,19,31.3,19.5,30.6z"/>
<path class="st5" d="M24.5,27.6c0.5-0.8,1.5-1,2.2-0.5l8,5c0.8,0.5,1,1.5,0.5,2.2c-0.5,0.8-1.5,1-2.2,0.5l-8-5
	C24.3,29.3,24,28.3,24.5,27.6z"/>
<path class="st5" d="M29.4,24.5c0.5-0.8,1.5-1,2.2-0.5l8.1,5c0.8,0.5,1,1.5,0.5,2.2c-0.5,0.8-1.5,1-2.2,0.5l-8.1-5
	C29.2,26.2,29,25.3,29.4,24.5z"/>
<path class="st5" d="M34.5,21.4c0.5-0.8,1.5-1,2.2-0.5l8,5c0.8,0.5,1,1.5,0.5,2.2c-0.5,0.8-1.5,1-2.2,0.5l-8-5
	C34.2,23.2,34,22.2,34.5,21.4z"/>
<path class="st5" d="M39.4,18.3c0.5-0.8,1.5-1,2.2-0.5l8.1,5c0.8,0.5,1,1.5,0.5,2.2c-0.5,0.8-1.5,1-2.2,0.5l-8.1-5
	C39.2,20.1,38.9,19.1,39.4,18.3z"/>
<path class="st5" d="M49.6,12c0.5-0.8,1.5-1,2.2-0.5l8,5c0.8,0.5,1,1.5,0.5,2.2c-0.5,0.8-1.5,1-2.2,0.5l-8-5
	C49.4,13.8,49.1,12.8,49.6,12z M44.5,15.3c0.5-0.8,1.5-1,2.2-0.5l8,5c0.8,0.5,1,1.5,0.5,2.2c-0.5,0.8-1.5,1-2.2,0.5l-8-5
	C44.2,17,44,16,44.5,15.3z"/>
<path d="M167.5,57.8l40.2,49.7v27.2l-40.2-32.8V57.8z"/>
<path class="st2" d="M102.5,142.2V98.1L26.2,50.3v44.1L102.5,142.2z"/>
<path class="st6" d="M102.5,142.2V98.1l65-40.3v44.1L102.5,142.2z"/>
<path class="st2" d="M167.5,159.7v-27.2l40.2-25v27.2L167.5,159.7z"/>
<path class="st2" d="M167.5,57.8l-65,40.3l65,34.4l40.2-25L167.5,57.8z"/>
<path class="st2" d="M102.5,98.1l65,34.4v27.2l-65-17.5V98.1z"/>
<path class="st2" d="M91.3,10l-65,40.3L102.5,98l65-40.3L91.3,10z"/>
<path class="st4" d="M91.6,29.7L61.8,48.1l16,10c8.5,1.8,17.6-2,21.9-4.7s8.9-7.7,7.9-13.8L91.6,29.7z"/>
<path class="st4" d="M123.8,49.7L94,68.2l16,10l29.8-18.5L123.8,49.7z"/>
<g>
	<path class="st7" d="M174.5,66.1l-61,37.8l-4.9-2.6l63.3-39.5L174.5,66.1z"/>
	<path class="st7" d="M183.9,73.7L125.1,110l-4.9-2.6l61.1-38L183.9,73.7z"/>
	<path class="st7" d="M191.7,81.9l-55.2,34.2l-4.9-2.6l57.5-35.8L191.7,81.9z"/>
	<path class="st7" d="M198,90.7l-50.4,31.2l-5-2.7l52.9-32.8L198,90.7z"/>
	<path class="st7" d="M208.9,98.3l-51.3,31.8l-2.6-4.2l51.3-31.8L208.9,98.3z"/>
	<path class="st7" d="M155.1,156.3v-30.4l5,2.7v29.1L155.1,156.3z"/>
	<path class="st7" d="M142.5,155.7v-36.5l5,1.8v36.2L142.5,155.7z"/>
	<path class="st7" d="M131.5,149.9l0.1-36.4l4.9,2.6l0.1,35.3L131.5,149.9z"/>
	<path class="st7" d="M120.3,147.4v-39.9l4.9,2.6v38.7L120.3,147.4z"/>
	<path class="st7" d="M108.6,145v-43.7l4.9,2.6v42.5L108.6,145z"/>
</g>
<path class="st2" d="M164.9,65.7l-51.3,31.8l69,25.6l13.4-8.3L164.9,65.7z"/>
<path class="st2" d="M199.3,120.3l30.8,19.2l-21.4,28.8l-35.5-22.6L199.3,120.3z"/>
<path class="st2" d="M208.1,158.3c0-3.9,2-7.5,5.3-9.6l14.9-9.3c1-0.6,2.3,0.1,2.3,1.3v11.4c0,2.3-1.2,4.4-3.1,5.7l-17.1,10.6
	c-1,0.6-2.3-0.1-2.3-1.3L208.1,158.3L208.1,158.3z"/>
<path class="st5" d="M771.5,63.2c0.8-3.4,1.7-6.5,2.9-9.5c3.3-8,7.8-14.7,13.4-20c5.7-5.5,12.4-9.6,20-12.4c7.7-2.8,16.1-4.2,25-4.2
	s17.2,1.4,24.8,4.2c7.7,2.8,14.5,6.9,20.2,12.4c5.7,5.3,10.2,12,13.4,20c1.3,3,2.3,6.2,3,9.5h-37c-3.7-11-14.1-18.9-26.3-18.9
	s-22.6,7.9-26.3,18.9C804.6,63.2,771.5,63.2,771.5,63.2z M753.9,63.2c-0.8-3.7-1.9-7.1-3.2-10.3c-3.3-8-8.1-14.6-14.2-19.8
	c-6-5.3-13.3-9.3-21.8-11.8c-8.4-2.5-17.8-3.8-28.2-3.8c-5.1,0-10.8,0.3-17.2,1c-6.4,0.5-12.5,1.7-18.2,3.6
	c-2.7,0.9-4.8,2.2-6.4,3.8c-1.5,1.5-2.2,3.6-2.2,6.4v31h34.8V46.5c2-0.3,3.9-0.5,5.8-0.6c2-0.1,3.9-0.2,5.8-0.2
	c9.3,0,16.8,3.1,22.4,9.2c2.2,2.3,3.9,5.1,5.2,8.3H753.9z M719.7,81.2h36v0.1c0,10.7-1.6,20-4.8,28.1c-3.2,7.9-7.8,14.6-13.8,20
	c-5.9,5.3-12.9,9.4-21.2,12c-8.3,2.7-17.4,4-27.4,4c-2.3,0-4.9-0.1-7.8-0.2c-2.9-0.1-6-0.4-9.2-0.8c-3.1-0.4-6.2-0.9-9.4-1.6
	c-3.1-0.5-5.9-1.3-8.6-2.4c-7.3-2.8-11-7.7-11-14.6V81.2h34.8v35c1.5,0.3,3.3,0.5,5.4,0.8c2.1,0.1,4.1,0.2,6,0.2
	c4.5,0,8.7-0.7,12.4-2c3.9-1.3,7.1-3.4,9.8-6.2c2.8-2.8,4.9-6.4,6.4-10.8c1.6-4.5,2.4-10,2.4-16.2C719.7,81.7,719.7,81.4,719.7,81.2
	z M568.2,63.2c3.2-13.4,15-23.3,29-23.3c0.2,0,0.4,0,0.6,0c-1.1-3.2-2.1-6.3-3.1-9.1c-1.5-4.1-4.8-7.1-10-9c-5.1-2-10.9-3-17.6-3
	c-4.7,0-9.3,0.6-14,1.8c-4.5,1.2-7.9,2.5-10.2,3.8c-0.9,2.4-2.3,5.9-4,10.4c-1.6,4.5-3.4,9.8-5.4,15.6c-1.4,4.1-2.9,8.3-4.4,12.8
	H568.2z M523.1,81.2h46.2c4.2,11.6,15.2,19.8,28,19.8c6.4,0,12.3-2,17.1-5.5c1.6,5.8,3.2,11.5,4.8,17.3c2.7,9.5,5,17.9,7,25.2
	c-1.6,1.9-4,3.3-7.2,4.4c-3.2,1.2-7,1.8-11.4,1.8c-3.2,0-5.9-0.3-8.2-0.8c-2.1-0.5-3.9-1.3-5.4-2.4c-1.3-1.1-2.5-2.5-3.4-4.2
	c-0.8-1.7-1.5-3.7-2.2-6l-3.6-13.8h-36.2c-1.1,4-2.1,8.1-3.2,12.4c-1.1,4.3-2.1,8.4-3.2,12.4c-1.9,0.7-3.9,1.2-6,1.6
	c-2,0.5-4.5,0.8-7.4,0.8c-6.8,0-11.9-1.1-15.2-3.4c-3.2-2.4-4.8-5.7-4.8-9.8c0-1.9,0.3-3.7,0.8-5.6s1.1-4.1,1.8-6.6
	c0.9-3.6,2.2-8.1,3.8-13.4c1.7-5.3,3.6-11.1,5.6-17.2C521.6,85.8,522.4,83.5,523.1,81.2z M499.2,63.2c1.8-5.9,3.3-11.2,4.4-16
	c1.5-5.6,2.2-9.9,2.2-12.8c0-5.1-1.7-8.7-5.2-10.8c-3.5-2.3-7.7-3.4-12.6-3.4c-3.5,0-6.6,0.4-9.4,1.2c-2.7,0.8-5.2,1.8-7.6,3
	c-3,12.9-6.2,25.8-9.6,38.8C461.4,63.2,499.2,63.2,499.2,63.2z M456.8,81.2h36.5c-0.8,2.3-1.6,4.6-2.5,6.9
	c-2.7,7.6-5.4,14.8-8.2,21.6c-2.7,6.7-5.2,12.6-7.6,17.8c-2.4,5.1-4.3,8.6-5.8,10.6c-1.9,1.6-4.8,3-8.8,4.2
	c-3.9,1.2-8.1,1.8-12.8,1.8c-5.6,0-10.4-0.8-14.4-2.4c-4-1.7-6.7-4.1-8.2-7c-1.5-3.1-3.3-7-5.4-11.8c-2.1-4.9-4.4-10.4-6.8-16.4
	c-2.3-6-4.7-12.4-7.2-19c-0.7-2.1-1.5-4.2-2.2-6.3H439c2.9,9.2,5.8,18.7,8.9,28.6h1.2C451.6,100.8,454.2,91.3,456.8,81.2z
	 M433.5,63.2c-2.7-9.2-5.4-18.6-8-28.4c-1.5-5.6-3.8-9.4-7-11.4c-3.1-2.1-7.1-3.2-12-3.2c-4,0-7.8,0.8-11.4,2.4
	c-3.5,1.5-6.1,3.1-8,5c1.5,5.9,3.2,12.2,5.2,18.8c1.6,5.5,3.4,11.1,5.2,16.8H433.5z M367.2,63.2c-0.8-2.7-1.6-5.5-2.4-8.1
	c-2.8-9.2-5.4-17.3-7.8-24.2c-1.5-4.1-4.8-7.1-10-9c-5.1-2-10.9-3-17.6-3c-4.7,0-9.3,0.6-14,1.8c-4.5,1.2-7.9,2.5-10.2,3.8
	c-0.9,2.4-2.3,5.9-4,10.4c-1,2.8-2.1,5.9-3.2,9.3c0.2,0,0.5,0,0.7,0c12.4,0,23,8,26.9,19.1L367.2,63.2L367.2,63.2z M372.4,81.2
	h-46.6c-3.7,11.5-14.4,19.8-27.1,19.8c-6.8,0-13-2.4-17.8-6.3c-1.2,3.7-2.3,7.2-3.4,10.6c-1.6,5.3-2.9,9.8-3.8,13.4
	c-0.7,2.5-1.3,4.7-1.8,6.6s-0.8,3.7-0.8,5.6c0,4.1,1.6,7.4,4.8,9.8c3.3,2.3,8.4,3.4,15.2,3.4c2.9,0,5.4-0.3,7.4-0.8
	c2.1-0.4,4.1-0.9,6-1.6c1.1-4,2.1-8.1,3.2-12.4c1.1-4.3,2.1-8.4,3.2-12.4h36.2l3.6,13.8c0.7,2.3,1.4,4.3,2.2,6
	c0.9,1.7,2.1,3.1,3.4,4.2c1.5,1.1,3.3,1.9,5.4,2.4c2.3,0.5,5,0.8,8.2,0.8c4.4,0,8.2-0.6,11.4-1.8c3.2-1.1,5.6-2.5,7.2-4.4
	c-2-7.3-4.3-15.8-7-25.2c-2.7-9.6-5.4-19.3-8.2-29.1C372.9,82.9,372.6,82,372.4,81.2z M769.7,81.2h35c3.8,10.9,14.1,18.7,26.2,18.7
	c12.2,0,22.5-7.8,26.2-18.7h39v0.1c0,10.4-1.6,19.7-4.8,27.9c-3.2,8-7.7,14.8-13.4,20.2c-5.6,5.3-12.3,9.4-20,12.2
	s-16.1,4.2-25.2,4.2c-9.1,0-17.5-1.4-25.2-4.2c-7.7-2.9-14.4-7.1-20-12.6s-10-12.2-13.2-20.2s-4.8-17.2-4.8-27.5
	C769.7,81.3,769.7,81.2,769.7,81.2z"/>
</svg>

<?xml version="1.0" encoding="UTF-8" standalone="no"?>
<!DOCTYPE svg PUBLIC "-//W3C//DTD SVG 1.1//EN" "http://www.w3.org/Graphics/SVG/1.1/DTD/svg11.dtd">
<svg width="100%" height="100%" viewBox="0 0 180 36" version="1.1" xmlns="http://www.w3.org/2000/svg" xmlns:xlink="http://www.w3.org/1999/xlink" xml:space="preserve" xmlns:serif="http://www.serif.com/" style="fill-rule:evenodd;clip-rule:evenodd;stroke-linejoin:round;stroke-miterlimit:2;">
    <g transform="matrix(1,0,0,1,0,-32.1405)">
        <g transform="matrix(0.200669,0,0,0.200669,90,50)">
            <g transform="matrix(1,0,0,1,-448.5,-89)">
                <path d="M138.7,89.5L138.7,53L53.9,0L53.9,36.5L138.7,89.5Z" style="fill:rgb(157,157,157);fill-rule:nonzero;"/>
                <path d="M0,70L0,33.4L53.9,0L53.9,36.6L0,70Z" style="fill:rgb(196,196,196);fill-rule:nonzero;"/>
                <path d="M84.7,123.1L84.7,86.5L0,33.4L0,70L84.7,123.1Z" style="fill:rgb(65,65,65);fill-rule:nonzero;"/>
                <path d="M84.7,123.1L84.7,86.5L138.6,53.1L138.6,89.7L84.7,123.1Z" style="fill:rgb(75,75,75);fill-rule:nonzero;"/>
                <path d="M54,0L0,33.4L84.7,86.4L138.7,53L54,0Z" style="fill:rgb(65,65,65);fill-rule:nonzero;"/>
                <path d="M55.1,9.8L15.5,34.2L77.7,73L117.3,48.6L55.1,9.8Z" style="fill:white;fill-rule:nonzero;"/>
                <path d="M19.5,30.6C20,29.8 21,29.6 21.7,30.1L29.8,35.1C30.6,35.6 30.8,36.6 30.3,37.3C29.8,38.1 28.8,38.3 28.1,37.8L20,32.8C19.2,32.3 19,31.3 19.5,30.6Z" style="fill:rgb(65,65,65);"/>
                <path d="M24.5,27.6C25,26.8 26,26.6 26.7,27.1L34.7,32.1C35.5,32.6 35.7,33.6 35.2,34.3C34.7,35.1 33.7,35.3 33,34.8L25,29.8C24.3,29.3 24,28.3 24.5,27.6Z" style="fill:rgb(65,65,65);"/>
                <path d="M29.4,24.5C29.9,23.7 30.9,23.5 31.6,24L39.7,29C40.5,29.5 40.7,30.5 40.2,31.2C39.7,32 38.7,32.2 38,31.7L29.9,26.7C29.2,26.2 29,25.3 29.4,24.5Z" style="fill:rgb(65,65,65);"/>
                <path d="M34.5,21.4C35,20.6 36,20.4 36.7,20.9L44.7,25.9C45.5,26.4 45.7,27.4 45.2,28.1C44.7,28.9 43.7,29.1 43,28.6L35,23.6C34.2,23.2 34,22.2 34.5,21.4Z" style="fill:rgb(65,65,65);"/>
                <path d="M39.4,18.3C39.9,17.5 40.9,17.3 41.6,17.8L49.7,22.8C50.5,23.3 50.7,24.3 50.2,25C49.7,25.8 48.7,26 48,25.5L39.9,20.5C39.2,20.1 38.9,19.1 39.4,18.3Z" style="fill:rgb(65,65,65);"/>
                <path d="M49.6,12C50.1,11.2 51.1,11 51.8,11.5L59.8,16.5C60.6,17 60.8,18 60.3,18.7C59.8,19.5 58.8,19.7 58.1,19.2L50.1,14.2C49.4,13.8 49.1,12.8 49.6,12ZM44.5,15.3C45,14.5 46,14.3 46.7,14.8L54.7,19.8C55.5,20.3 55.7,21.3 55.2,22C54.7,22.8 53.7,23 53,22.5L45,17.5C44.2,17 44,16 44.5,15.3Z" style="fill:rgb(65,65,65);"/>
                <path d="M167.5,57.8L207.7,107.5L207.7,134.7L167.5,101.9L167.5,57.8Z" style="fill-rule:nonzero;"/>
                <path d="M102.5,142.2L102.5,98.1L26.2,50.3L26.2,94.4L102.5,142.2Z" style="fill:rgb(65,65,65);fill-rule:nonzero;"/>
                <path d="M102.5,142.2L102.5,98.1L167.5,57.8L167.5,101.9L102.5,142.2Z" style="fill:rgb(68,68,68);fill-rule:nonzero;"/>
                <path d="M167.5,159.7L167.5,132.5L207.7,107.5L207.7,134.7L167.5,159.7Z" style="fill:rgb(65,65,65);fill-rule:nonzero;"/>
                <path d="M167.5,57.8L102.5,98.1L167.5,132.5L207.7,107.5L167.5,57.8Z" style="fill:rgb(65,65,65);fill-rule:nonzero;"/>
                <path d="M102.5,98.1L167.5,132.5L167.5,159.7L102.5,142.2L102.5,98.1Z" style="fill:rgb(65,65,65);fill-rule:nonzero;"/>
                <path d="M91.3,10L26.3,50.3L102.5,98L167.5,57.7L91.3,10Z" style="fill:rgb(65,65,65);fill-rule:nonzero;"/>
                <path d="M91.6,29.7L61.8,48.1L77.8,58.1C86.3,59.9 95.4,56.1 99.7,53.4C104,50.7 108.6,45.7 107.6,39.6L91.6,29.7Z" style="fill:white;fill-rule:nonzero;"/>
                <path d="M123.8,49.7L94,68.2L110,78.2L139.8,59.7L123.8,49.7Z" style="fill:white;fill-rule:nonzero;"/>
                <g>
                    <path d="M174.5,66.1L113.5,103.9L108.6,101.3L171.9,61.8L174.5,66.1Z" style="fill:white;"/>
                    <path d="M183.9,73.7L125.1,110L120.2,107.4L181.3,69.4L183.9,73.7Z" style="fill:white;"/>
                    <path d="M191.7,81.9L136.5,116.1L131.6,113.5L189.1,77.7L191.7,81.9Z" style="fill:white;"/>
                    <path d="M198,90.7L147.6,121.9L142.6,119.2L195.5,86.4L198,90.7Z" style="fill:white;"/>
                    <path d="M208.9,98.3L157.6,130.1L155,125.9L206.3,94.1L208.9,98.3Z" style="fill:white;"/>
                    <path d="M155.1,156.3L155.1,125.9L160.1,128.6L160.1,157.7L155.1,156.3Z" style="fill:white;"/>
                    <path d="M142.5,155.7L142.5,119.2L147.5,121L147.5,157.2L142.5,155.7Z" style="fill:white;"/>
                    <path d="M131.5,149.9L131.6,113.5L136.5,116.1L136.6,151.4L131.5,149.9Z" style="fill:white;"/>
                    <path d="M120.3,147.4L120.3,107.5L125.2,110.1L125.2,148.8L120.3,147.4Z" style="fill:white;"/>
                    <path d="M108.6,145L108.6,101.3L113.5,103.9L113.5,146.4L108.6,145Z" style="fill:white;"/>
                </g>
                <path d="M164.9,65.7L113.6,97.5L182.6,123.1L196,114.8L164.9,65.7Z" style="fill:rgb(65,65,65);fill-rule:nonzero;"/>
                <path d="M199.3,120.3L230.1,139.5L208.7,168.3L173.2,145.7L199.3,120.3Z" style="fill:rgb(65,65,65);fill-rule:nonzero;"/>
                <path d="M208.1,158.3C208.1,154.4 210.1,150.8 213.4,148.7L228.3,139.4C229.3,138.8 230.6,139.5 230.6,140.7L230.6,152.1C230.6,154.4 229.4,156.5 227.5,157.8L210.4,168.4C209.4,169 208.1,168.3 208.1,167.1L208.1,158.3Z" style="fill:rgb(65,65,65);fill-rule:nonzero;"/>
                <path d="M771.5,63.2C772.3,59.8 773.2,56.7 774.4,53.7C777.7,45.7 782.2,39 787.8,33.7C793.5,28.2 800.2,24.1 807.8,21.3C815.5,18.5 823.9,17.1 832.8,17.1C841.7,17.1 850,18.5 857.6,21.3C865.3,24.1 872.1,28.2 877.8,33.7C883.5,39 888,45.7 891.2,53.7C892.5,56.7 893.5,59.9 894.2,63.2L857.2,63.2C853.5,52.2 843.1,44.3 830.9,44.3C818.7,44.3 808.3,52.2 804.6,63.2L771.5,63.2ZM753.9,63.2C753.1,59.5 752,56.1 750.7,52.9C747.4,44.9 742.6,38.3 736.5,33.1C730.5,27.8 723.2,23.8 714.7,21.3C706.3,18.8 696.9,17.5 686.5,17.5C681.4,17.5 675.7,17.8 669.3,18.5C662.9,19 656.8,20.2 651.1,22.1C648.4,23 646.3,24.3 644.7,25.9C643.2,27.4 642.5,29.5 642.5,32.3L642.5,63.3L677.3,63.3L677.3,46.5C679.3,46.2 681.2,46 683.1,45.9C685.1,45.8 687,45.7 688.9,45.7C698.2,45.7 705.7,48.8 711.3,54.9C713.5,57.2 715.2,60 716.5,63.2L753.9,63.2ZM719.7,81.2L755.7,81.2L755.7,81.3C755.7,92 754.1,101.3 750.9,109.4C747.7,117.3 743.1,124 737.1,129.4C731.2,134.7 724.2,138.8 715.9,141.4C707.6,144.1 698.5,145.4 688.5,145.4C686.2,145.4 683.6,145.3 680.7,145.2C677.8,145.1 674.7,144.8 671.5,144.4C668.4,144 665.3,143.5 662.1,142.8C659,142.3 656.2,141.5 653.5,140.4C646.2,137.6 642.5,132.7 642.5,125.8L642.5,81.2L677.3,81.2L677.3,116.2C678.8,116.5 680.6,116.7 682.7,117C684.8,117.1 686.8,117.2 688.7,117.2C693.2,117.2 697.4,116.5 701.1,115.2C705,113.9 708.2,111.8 710.9,109C713.7,106.2 715.8,102.6 717.3,98.2C718.9,93.7 719.7,88.2 719.7,82L719.7,81.2ZM568.2,63.2C571.4,49.8 583.2,39.9 597.2,39.9L597.8,39.9C596.7,36.7 595.7,33.6 594.7,30.8C593.2,26.7 589.9,23.7 584.7,21.8C579.6,19.8 573.8,18.8 567.1,18.8C562.4,18.8 557.8,19.4 553.1,20.6C548.6,21.8 545.2,23.1 542.9,24.4C542,26.8 540.6,30.3 538.9,34.8C537.3,39.3 535.5,44.6 533.5,50.4C532.1,54.5 530.6,58.7 529.1,63.2L568.2,63.2ZM523.1,81.2L569.3,81.2C573.5,92.8 584.5,101 597.3,101C603.7,101 609.6,99 614.4,95.5C616,101.3 617.6,107 619.2,112.8C621.9,122.3 624.2,130.7 626.2,138C624.6,139.9 622.2,141.3 619,142.4C615.8,143.6 612,144.2 607.6,144.2C604.4,144.2 601.7,143.9 599.4,143.4C597.3,142.9 595.5,142.1 594,141C592.7,139.9 591.5,138.5 590.6,136.8C589.8,135.1 589.1,133.1 588.4,130.8L584.8,117L548.6,117C547.5,121 546.5,125.1 545.4,129.4C544.3,133.7 543.3,137.8 542.2,141.8C540.3,142.5 538.3,143 536.2,143.4C534.2,143.9 531.7,144.2 528.8,144.2C522,144.2 516.9,143.1 513.6,140.8C510.4,138.4 508.8,135.1 508.8,131C508.8,129.1 509.1,127.3 509.6,125.4C510.1,123.5 510.7,121.3 511.4,118.8C512.3,115.2 513.6,110.7 515.2,105.4C516.9,100.1 518.8,94.3 520.8,88.2C521.6,85.8 522.4,83.5 523.1,81.2ZM499.2,63.2C501,57.3 502.5,52 503.6,47.2C505.1,41.6 505.8,37.3 505.8,34.4C505.8,29.3 504.1,25.7 500.6,23.6C497.1,21.3 492.9,20.2 488,20.2C484.5,20.2 481.4,20.6 478.6,21.4C475.9,22.2 473.4,23.2 471,24.4C468,37.3 464.8,50.2 461.4,63.2L499.2,63.2ZM456.8,81.2L493.3,81.2C492.5,83.5 491.7,85.8 490.8,88.1C488.1,95.7 485.4,102.9 482.6,109.7C479.9,116.4 477.4,122.3 475,127.5C472.6,132.6 470.7,136.1 469.2,138.1C467.3,139.7 464.4,141.1 460.4,142.3C456.5,143.5 452.3,144.1 447.6,144.1C442,144.1 437.2,143.3 433.2,141.7C429.2,140 426.5,137.6 425,134.7C423.5,131.6 421.7,127.7 419.6,122.9C417.5,118 415.2,112.5 412.8,106.5C410.5,100.5 408.1,94.1 405.6,87.5C404.9,85.4 404.1,83.3 403.4,81.2L439,81.2C441.9,90.4 444.8,99.9 447.9,109.8L449.1,109.8C451.6,100.8 454.2,91.3 456.8,81.2ZM433.5,63.2C430.8,54 428.1,44.6 425.5,34.8C424,29.2 421.7,25.4 418.5,23.4C415.4,21.3 411.4,20.2 406.5,20.2C402.5,20.2 398.7,21 395.1,22.6C391.6,24.1 389,25.7 387.1,27.6C388.6,33.5 390.3,39.8 392.3,46.4C393.9,51.9 395.7,57.5 397.5,63.2L433.5,63.2ZM367.2,63.2C366.4,60.5 365.6,57.7 364.8,55.1C362,45.9 359.4,37.8 357,30.9C355.5,26.8 352.2,23.8 347,21.9C341.9,19.9 336.1,18.9 329.4,18.9C324.7,18.9 320.1,19.5 315.4,20.7C310.9,21.9 307.5,23.2 305.2,24.5C304.3,26.9 302.9,30.4 301.2,34.9C300.2,37.7 299.1,40.8 298,44.2L298.7,44.2C311.1,44.2 321.7,52.2 325.6,63.3L367.2,63.2ZM372.4,81.2L325.8,81.2C322.1,92.7 311.4,101 298.7,101C291.9,101 285.7,98.6 280.9,94.7C279.7,98.4 278.6,101.9 277.5,105.3C275.9,110.6 274.6,115.1 273.7,118.7C273,121.2 272.4,123.4 271.9,125.3C271.4,127.2 271.1,129 271.1,130.9C271.1,135 272.7,138.3 275.9,140.7C279.2,143 284.3,144.1 291.1,144.1C294,144.1 296.5,143.8 298.5,143.3C300.6,142.9 302.6,142.4 304.5,141.7C305.6,137.7 306.6,133.6 307.7,129.3C308.8,125 309.8,120.9 310.9,116.9L347.1,116.9L350.7,130.7C351.4,133 352.1,135 352.9,136.7C353.8,138.4 355,139.8 356.3,140.9C357.8,142 359.6,142.8 361.7,143.3C364,143.8 366.7,144.1 369.9,144.1C374.3,144.1 378.1,143.5 381.3,142.3C384.5,141.2 386.9,139.8 388.5,137.9C386.5,130.6 384.2,122.1 381.5,112.7C378.8,103.1 376.1,93.4 373.3,83.6C372.9,82.9 372.6,82 372.4,81.2ZM769.7,81.2L804.7,81.2C808.5,92.1 818.8,99.9 830.9,99.9C843.1,99.9 853.4,92.1 857.1,81.2L896.1,81.2L896.1,81.3C896.1,91.7 894.5,101 891.3,109.2C888.1,117.2 883.6,124 877.9,129.4C872.3,134.7 865.6,138.8 857.9,141.6C850.2,144.4 841.8,145.8 832.7,145.8C823.6,145.8 815.2,144.4 807.5,141.6C799.8,138.7 793.1,134.5 787.5,129C781.9,123.5 777.5,116.8 774.3,108.8C771.1,100.8 769.5,91.6 769.5,81.3C769.7,81.3 769.7,81.2 769.7,81.2Z" style="fill:rgb(65,65,65);"/>
            </g>
        </g>
    </g>
</svg>
